!!!!SEGMENT: Distler_Jahrkreis_37_Aus-tiefer-Not-schrei-ich-zu-Dir.krn
!!!COM: Distler, Hugo
!!!CDT: 1908-1942
!!!OPR@@DE: Der Jahrkreis
!!!OPR@EN: The Year Cycle
!!!OTL@@DE: Aus tiefer Not schrei ich zu Dir
!!!OTL@EN: Out of deep anguish I call to You
!!!OPS: 5
!!!ONM: 37
**kern	**text	**kern	**text	**kern	**text
*part3	*part3	*part2	*part2	*part1	*part1
*staff3	*staff3	*staff2	*staff2	*staff1	*staff1
*Ibass	*	*Ialto	*	*Isoprn	*
*clefF4	*	*clefG2	*	*clefG2	*
*k[]	*	*k[]	*	*k[]	*
*M4/4	*	*M4/4	*	*M4/4	*
*MM120	*	*MM120	*	*MM120	*
*>[I,A,A1,A,A2,B]	*>[I,A,A1,A,A2,B]	*>[I,A,A1,A,A2,B]	*>[I,A,A1,A,A2,B]	*>[I,A,A1,A,A2,B]	*>[I,A,A1,A,A2,B]
*>norep[I,A,A2,B]	*>norep[I,A,A2,B]	*>norep[I,A,A2,B]	*>norep[I,A,A2,B]	*norep[I,A,A2,B]	*norep[I,A,A2,B]
*>I	*>I	*>I	*>I	*>I	*>I
=1	=1	=1	=1	=1	=1
4B	Aus	1r	.	1r	.
2E	tie-	.	.	.	.
4B	fer	.	.	.	.
=2!|:	=2	=2!|:	=2	=2!|:	=2
*>A	*>A	*>A	*>A	*>A	*>A
(4.c	Not	1r	.	1r	.
4B)	.	.	.	.	.
8B	schrei'	.	.	.	.
[4G	ich	.	.	.	.
=3	=3	=3	=3	=3	=3
4G]	.	1r	.	2r	.
4A	zu	.	.	.	.
[2B	dir,	.	.	2b	Herr
=4	=4	=4	=4	=4	=4
2B]	.	2e	Herr	2cc	Gott,
2r	.	2f	Gott,	4b	er-
.	.	.	.	[(4dd	hoer'
!!LO:LB:g=original
=5	=5	=5	=5	=5	=5
2r	.	4e	er-	8ddL]	.
.	.	.	.	8bJ)	.
.	.	(4.g	hoer'	4cc	mein
2B	Herr	.	.	(4.b	Ru-
.	.	8e)	.	.	.
.	.	4d	mein	.	.
.	.	.	.	8aL	.
=6	=6	=6	=6	=6	=6
4c	Gott,	(4.e	Ru-	8f	.
.	.	.	.	8aJ	.
4d	er-	.	.	4.b	.
.	.	8fL	.	.	.
4c	hoer'	8g	.	.	.
.	.	8f	.	8aL	.
4A	mein	8e	.	8b	.
.	.	8dJ	.	8ee	.
=7	=7	=7	=7	=7	=7
(2G	Ru-	4.e	.	8b	.
.	.	.	.	8aJ	.
.	.	.	.	4.b	.
.	.	8d	.	.	.
2F)	.	4e	.	.	.
.	.	.	.	8a	.
.	.	4a)	.	4b)	.
!!LO:LB:g=original
=8	=8	=8	=8	=8	=8
*>A1	*>A1	*>A1	*>A1	*>A1	*>A1
4E,	fen!	1g#	fen!	1b	fen!
4B	Dein	.	.	.	.
4E	gnae-	.	.	.	.
4B	dig'	.	.	.	.
=9:|!	=9	=9:|!	=9	=9:|!	=9
*>A2	*>A2	*>A2	*>A2	*>A2	*>A2
1E	fen!	1g#	fen!	1b	fen!
=10||	=10	=10||	=10	=10||	=10
*>B	*>B	*>B	*>B	*>B	*>B
2r	.	2e	Denn	2a	Denn
4r	.	4e	so	4g	so
4A	Denn	4e	du	4cc	du
=11	=11	=11	=11	=11	=11
*M2/4	*	*M2/4	*	*M2/4	*
4G	so	4gn	willst	4b	willst
4c	du	4e	das	4a	das
!!LO:LB:g=original
=12	=12	=12	=12	=12	=12
*M6/4	*	*M6/4	*	*M6/4	*
4.B	willst	(4.g	se-	(8bL	se-
.	.	.	.	8ccJ	.
.	.	.	.	4.dd	.
8A	das	8f#	.	.	.
(8BL	se-	4e	.	.	.
8cJ	.	.	.	4b	.
4.d	.	8dL	.	.	.
.	.	8cJ	.	8a	.
.	.	4d)	.	4b)	.
8c)	.	.	.	.	.
4B	hen	4f#	hen	4b	hen
=13	=13	=13	=13	=13	=13
*M3/4	*	*M3/4	*	*M3/4	*
4A,	an,	4e,	an,	4cc,	an,
2F	was	2a	was	2cc	was
=14	=14	=14	=14	=14	=14
*M4/4	*	*M4/4	*	*M4/4	*
4G	Suend'	4g	Suend'	4b	Suend'
4E	und	4a	und	4cc	und
2D	Un-	2f#	Un-	2dd	Un-
!!LO:LB:g=original
=15	=15	=15	=15	=15	=15
4C	recht	4e	recht	4g	recht
(2G	ist	(4.d	ist	(2b	ist
.	.	8e	.	.	.
[4E	.	[4g	.	[4cc	.
=16	=16	=16	=16	=16	=16
4E]	.	4g]	.	8ccL]	.
.	.	.	.	8bJ	.
8DL	.	4.f#	.	4g	.
8CJ)	.	.	.	.	.
2D	ge-	.	.	4a)	.
.	.	8e)	.	.	.
.	.	(8dL	ge-	4b	ge-
.	.	8c#J)	.	.	.
=17	=17	=17	=17	=17	=17
*M2/4	*	*M2/4	*	*M2/4	*
4E,	tan,	2B	tan,	2g	tan,
4G	wer	.	.	.	.
=18	=18	=18	=18	=18	=18
*M4/4	*	*M4/4	*	*M4/4	*
4c	kann,	4r	.	2r	.
4B	Herr,	4d	wer	.	.
4A	vor	4fn	kann,	4r	.
4E	dir	[4e	Herr,	4g	wer
!!LO:LB:g=original
=19	=19	=19	=19	=19	=19
(2.F	blei-	4e],	.	4cc	kann,
.	.	4d	wer	4b	Herr,
.	.	4f	kann,	4a	vor
4C	.	4e	Herr,	4e	dir
=20	=20	=20	=20	=20	=20
1D	.	4d	vor	(4f	blei-
.	.	4B	dir	2g	.
.	.	(4.e	blei-	.	.
.	.	.	.	[4a	.
.	.	8d	.	.	.
=21	=21	=21	=21	=21	=21
1AA)	.	4c	.	8aL]	.
.	.	.	.	8gJ	.
.	.	4B	.	2e	.
.	.	2A)	.	.	.
.	.	.	.	4f#)	.
=22	=22	=22	=22	=22	=22
1E	ben?	1B	ben?	1g#	ben?
==	==	==	==	==	==
*-	*-	*-	*-	*-	*-
!!!YOR: Bärenreiter-Ausgabe 676
!!!YOY: 1933
!!!EFL: 37/52
!!!URL-github: https://github.com/LucasHofmann/distler/blob/main/Jahrkreis/Distler_Jahrkreis_37_Aus-tiefer-Not-schrei-ich-zu-Dir.krn
!!!URL-pdf: https://imslp.eu/files/imglnks/euimg/7/7d/IMSLP834545-PMLP518834-5-jahrkreis-EA--original-paper-600dpi.pdf#page=71 First edition, Kassel: Bärenreiter, 1933. Plate BA 676.
!!!URL-imslp: https://imslp.org/wiki/Der_Jahrkreis,_Op.5_(Distler,_Hugo)#IMSLP834545
!!!system-decoration: [(s1,s2,s3)]
!!!ENC: Lucas Hofmann
!!!END: 2023/12/03
!!!title: @{OPR@@DE}, Op. @{OPS}, Nr. @{ONM}. <i>@{OTL@@DE}</i>
